build/img/sprite_auto.svg

<svg xmlns="http://www.w3.org/2000/svg" xmlns:xlink="http://www.w3.org/1999/xlink"><defs>
<linearGradient id="paint0_linear" x1="-2" y1="3" x2="21.4754" y2="70.4479" gradientUnits="userSpaceOnUse">
<stop stop-color="#D10A42"/>
<stop offset="1" stop-color="#0041CA"/>
</linearGradient>

<linearGradient id="paint0_linear" x1="-3" y1="2" x2="28.5181" y2="60.6935" gradientUnits="userSpaceOnUse">
<stop stop-color="#D10A42"/>
<stop offset="1" stop-color="#0041CA"/>
</linearGradient>

<linearGradient id="paint0_linear" x1="-2" y1="3" x2="29.023" y2="62.4222" gradientUnits="userSpaceOnUse">
<stop stop-color="#D10A42"/>
<stop offset="1" stop-color="#0041CA"/>
</linearGradient>

<linearGradient id="paint0_linear" x1="-3" y1="3" x2="19.4438" y2="41.104" gradientUnits="userSpaceOnUse">
<stop stop-color="#D10A42"/>
<stop offset="1" stop-color="#0041CA"/>
</linearGradient>

    <linearGradient id="paint0_linear" x1="19.774" y1="3.00672e-05" x2="105.785" y2="10.6444" gradientUnits="userSpaceOnUse">
      <stop stop-color="#ED0233"/>
      <stop offset="1" stop-color="#003EB7"/>
    </linearGradient>
    <linearGradient id="paint1_linear" x1="14" y1="49.52" x2="54.1858" y2="9.18415" gradientUnits="userSpaceOnUse">
      <stop stop-color="#003D85"/>
      <stop offset="0.885417" stop-color="#B80027"/>
    </linearGradient>
  </defs><symbol id="icon_advantages_350" viewBox="0 0 103 53">
<path d="M10.0298 22.2896H14.7793C16.582 22.2896 17.8994 21.6655 18.7314 20.4175C19.5866 19.1463 20.0142 17.4591 20.0142 15.356C20.0142 13.3452 19.575 11.7852 18.6968 10.6758C17.8416 9.54329 16.686 8.97705 15.23 8.97705C13.8664 8.97705 12.7454 9.50863 11.8672 10.5718C11.012 11.6349 10.5845 12.9754 10.5845 14.5933H0.773438C0.773438 11.9585 1.37435 9.60107 2.57617 7.521C3.80111 5.41781 5.49984 3.77686 7.67236 2.59814C9.868 1.41943 12.2948 0.830078 14.9526 0.830078C19.5981 0.830078 23.2383 2.11279 25.873 4.67822C28.5078 7.24365 29.8252 10.7567 29.8252 15.2173C29.8252 17.5054 29.2243 19.6317 28.0225 21.5962C26.8438 23.5376 25.2837 25.0283 23.3423 26.0684C25.7228 27.0853 27.4909 28.6107 28.6465 30.6445C29.8252 32.6784 30.4146 35.082 30.4146 37.8555C30.4146 42.3392 28.9816 45.9331 26.1157 48.6372C23.2729 51.3413 19.5288 52.6934 14.8833 52.6934C10.5614 52.6934 7.04834 51.3644 4.34424 48.7065C1.66325 46.0256 0.322754 42.5125 0.322754 38.1675H10.1338C10.1338 39.9702 10.6076 41.484 11.5552 42.709C12.5028 43.9339 13.7046 44.5464 15.1606 44.5464C16.8478 44.5464 18.1768 43.9224 19.1475 42.6743C20.1413 41.4263 20.6382 39.7622 20.6382 37.6821C20.6382 32.7131 18.7083 30.217 14.8486 30.1938H10.0298V22.2896ZM38.2148 27.1777L40.7109 1.52344H65.1519V9.91309H48.7539L47.8525 20.7295C49.7477 19.4583 51.7007 18.8228 53.7114 18.8228C57.8716 18.8228 61.0726 20.3019 63.3145 23.2603C65.5794 26.2186 66.7119 30.4019 66.7119 35.8101C66.7119 40.8716 65.3714 44.9508 62.6904 48.0479C60.0094 51.1449 56.4271 52.6934 51.9434 52.6934C49.2855 52.6934 46.8241 52.0693 44.5591 50.8213C42.2941 49.5501 40.5029 47.7936 39.1855 45.5518C37.8913 43.3099 37.2326 40.7676 37.2095 37.9248H46.9165C47.0783 40.028 47.5983 41.6574 48.4766 42.813C49.3548 43.9686 50.4873 44.5464 51.874 44.5464C53.4919 44.5464 54.7399 43.7721 55.6182 42.2236C56.4964 40.652 56.9355 38.3177 56.9355 35.2207C56.9355 32.3086 56.404 30.113 55.3408 28.6338C54.3008 27.1546 52.8332 26.415 50.938 26.415C49.089 26.415 47.6561 27.0506 46.6392 28.3218L46.0151 29.1885L38.2148 27.1777ZM102.455 31.1299C102.455 38.1097 101.183 43.4486 98.6411 47.1465C96.1219 50.8444 92.5164 52.6934 87.8247 52.6934C83.1792 52.6934 79.5853 50.9022 77.043 47.3198C74.5238 43.7144 73.2179 38.5604 73.1255 31.8579V22.3242C73.1255 15.3675 74.3851 10.0518 76.9043 6.37695C79.4235 2.67904 83.0405 0.830078 87.7554 0.830078C92.4702 0.830078 96.0872 2.65592 98.6064 6.30762C101.126 9.95931 102.408 15.1711 102.455 21.9429V31.1299ZM92.6089 20.9028C92.6089 16.9276 92.216 13.9461 91.4302 11.9585C90.6444 9.97087 89.4194 8.97705 87.7554 8.97705C84.6353 8.97705 83.0174 12.6172 82.9019 19.8975V32.4819C82.9019 36.5496 83.2948 39.5773 84.0806 41.5649C84.8895 43.5526 86.1375 44.5464 87.8247 44.5464C89.4194 44.5464 90.5981 43.6219 91.3608 41.7729C92.1466 39.9009 92.5627 37.0465 92.6089 33.21V20.9028Z" fill="url(#paint0_linear)"/>

</symbol><symbol id="icon_advantages_5" viewBox="0 0 65 52">
<path d="M1.29883 26.1777L3.79492 0.523438H28.2358V8.91309H11.8379L10.9365 19.7295C12.8317 18.4583 14.7847 17.8228 16.7954 17.8228C20.9556 17.8228 24.1566 19.3019 26.3984 22.2603C28.6634 25.2186 29.7959 29.4019 29.7959 34.8101C29.7959 39.8716 28.4554 43.9508 25.7744 47.0479C23.0934 50.1449 19.5111 51.6934 15.0273 51.6934C12.3695 51.6934 9.90804 51.0693 7.64307 49.8213C5.37809 48.5501 3.58691 46.7936 2.26953 44.5518C0.97526 42.3099 0.316569 39.7676 0.293457 36.9248H10.0005C10.1623 39.028 10.6823 40.6574 11.5605 41.813C12.4388 42.9686 13.5713 43.5464 14.958 43.5464C16.5758 43.5464 17.8239 42.7721 18.7021 41.2236C19.5804 39.652 20.0195 37.3177 20.0195 34.2207C20.0195 31.3086 19.488 29.113 18.4248 27.6338C17.3848 26.1546 15.9172 25.415 14.022 25.415C12.173 25.415 10.7401 26.0506 9.72314 27.3218L9.09912 28.1885L1.29883 26.1777ZM54.4102 22.7109H64.2212V31.8286H54.4102V45.9385H45.1191V31.8286H35.1348V22.7109H45.1191V9.19043H54.4102V22.7109Z" fill="url(#paint0_linear)"/>

</symbol><symbol id="icon_advantages_70" viewBox="0 0 67 53">
<path d="M30.8999 7.17432L14.9526 52H4.58691L20.6035 9.67041H0.357422V1.52344H30.8999V7.17432ZM66.5386 31.1299C66.5386 38.1097 65.2674 43.4486 62.7251 47.1465C60.2059 50.8444 56.6004 52.6934 51.9087 52.6934C47.2632 52.6934 43.6693 50.9022 41.127 47.3198C38.6077 43.7144 37.3019 38.5604 37.2095 31.8579V22.3242C37.2095 15.3675 38.4691 10.0518 40.9883 6.37695C43.5075 2.67904 47.1245 0.830078 51.8394 0.830078C56.5542 0.830078 60.1712 2.65592 62.6904 6.30762C65.2096 9.95931 66.4924 15.1711 66.5386 21.9429V31.1299ZM56.6929 20.9028C56.6929 16.9276 56.3 13.9461 55.5142 11.9585C54.7284 9.97087 53.5034 8.97705 51.8394 8.97705C48.7192 8.97705 47.1014 12.6172 46.9858 19.8975V32.4819C46.9858 36.5496 47.3787 39.5773 48.1646 41.5649C48.9735 43.5526 50.2215 44.5464 51.9087 44.5464C53.5034 44.5464 54.6821 43.6219 55.4448 41.7729C56.2306 39.9009 56.6466 37.0465 56.6929 33.21V20.9028Z" fill="url(#paint0_linear)"/>

</symbol><symbol id="icon_advantages_900" viewBox="0 0 102 53">
<path d="M19.3262 32.4819C17.2461 34.6082 14.9696 35.6714 12.4966 35.6714C8.65999 35.6714 5.63232 34.1344 3.41357 31.0605C1.21794 27.9635 0.120117 23.8381 0.120117 18.6841C0.120117 15.356 0.744141 12.3167 1.99219 9.56641C3.24023 6.79297 4.97363 4.64355 7.19238 3.11816C9.43424 1.59277 11.9303 0.830078 14.6807 0.830078C17.5234 0.830078 20.0542 1.67367 22.2729 3.36084C24.4917 5.04801 26.2135 7.47477 27.4385 10.6411C28.6634 13.7843 29.2759 17.3667 29.2759 21.3882V24.959C29.2759 33.5566 27.3807 40.2822 23.5903 45.1357C19.8231 49.9661 14.4727 52.4276 7.53906 52.52H6.53369V44.061H7.19238C11.029 44.0379 13.9064 43.0441 15.8247 41.0796C17.7661 39.1151 18.9333 36.2492 19.3262 32.4819ZM14.9927 27.9751C16.8879 27.9751 18.3786 26.6808 19.4648 24.0923V19.5854C19.4648 16.2804 19.0142 13.6919 18.1128 11.8198C17.2114 9.92464 16.0443 8.97705 14.6113 8.97705C13.2015 8.97705 12.0575 9.91309 11.1792 11.7852C10.3241 13.6341 9.89648 15.8991 9.89648 18.5801C9.89648 21.4922 10.3472 23.7918 11.2485 25.479C12.1499 27.1431 13.3979 27.9751 14.9927 27.9751ZM65.5386 31.1299C65.5386 38.1097 64.2674 43.4486 61.7251 47.1465C59.2059 50.8444 55.6004 52.6934 50.9087 52.6934C46.2632 52.6934 42.6693 50.9022 40.127 47.3198C37.6077 43.7144 36.3019 38.5604 36.2095 31.8579V22.3242C36.2095 15.3675 37.4691 10.0518 39.9883 6.37695C42.5075 2.67904 46.1245 0.830078 50.8394 0.830078C55.5542 0.830078 59.1712 2.65592 61.6904 6.30762C64.2096 9.95931 65.4924 15.1711 65.5386 21.9429V31.1299ZM55.6929 20.9028C55.6929 16.9276 55.3 13.9461 54.5142 11.9585C53.7284 9.97087 52.5034 8.97705 50.8394 8.97705C47.7192 8.97705 46.1014 12.6172 45.9858 19.8975V32.4819C45.9858 36.5496 46.3787 39.5773 47.1646 41.5649C47.9735 43.5526 49.2215 44.5464 50.9087 44.5464C52.5034 44.5464 53.6821 43.6219 54.4448 41.7729C55.2306 39.9009 55.6466 37.0465 55.6929 33.21V20.9028ZM101.455 31.1299C101.455 38.1097 100.183 43.4486 97.6411 47.1465C95.1219 50.8444 91.5164 52.6934 86.8247 52.6934C82.1792 52.6934 78.5853 50.9022 76.043 47.3198C73.5238 43.7144 72.2179 38.5604 72.1255 31.8579V22.3242C72.1255 15.3675 73.3851 10.0518 75.9043 6.37695C78.4235 2.67904 82.0405 0.830078 86.7554 0.830078C91.4702 0.830078 95.0872 2.65592 97.6064 6.30762C100.126 9.95931 101.408 15.1711 101.455 21.9429V31.1299ZM91.6089 20.9028C91.6089 16.9276 91.216 13.9461 90.4302 11.9585C89.6444 9.97087 88.4194 8.97705 86.7554 8.97705C83.6353 8.97705 82.0174 12.6172 81.9019 19.8975V32.4819C81.9019 36.5496 82.2948 39.5773 83.0806 41.5649C83.8895 43.5526 85.1375 44.5464 86.8247 44.5464C88.4194 44.5464 89.5981 43.6219 90.3608 41.7729C91.1466 39.9009 91.5627 37.0465 91.6089 33.21V20.9028Z" fill="url(#paint0_linear)"/>

</symbol><symbol id="icon_footer_fb" viewBox="0 0 12 24">
<path d="M11.5481 0.0049936L8.66986 0C5.43624 0 3.34653 2.31828 3.34653 5.90643V8.62969H0.452578C0.202506 8.62969 0 8.84891 0 9.11932V13.065C0 13.3354 0.202736 13.5544 0.452578 13.5544H3.34653V23.5106C3.34653 23.781 3.54904 24 3.79911 24H7.5749C7.82497 24 8.02748 23.7808 8.02748 23.5106V13.5544H11.4112C11.6613 13.5544 11.8638 13.3354 11.8638 13.065L11.8652 9.11932C11.8652 8.98948 11.8174 8.86514 11.7326 8.77326C11.6479 8.68138 11.5324 8.62969 11.4123 8.62969H8.02748V6.32115C8.02748 5.21157 8.27201 4.64829 9.60873 4.64829L11.5477 4.64755C11.7975 4.64755 12 4.42833 12 4.15817V0.494367C12 0.224462 11.7977 0.00549296 11.5481 0.0049936Z" fill="white"/>
</symbol><symbol id="icon_footer_inst" viewBox="0 0 24 24">
<path d="M17.5034 0H6.49658C2.91431 0 0 2.91431 0 6.49658V17.5036C0 21.0857 2.91431 24 6.49658 24H17.5036C21.0857 24 24 21.0857 24 17.5036V6.49658C24 2.91431 21.0857 0 17.5034 0V0ZM12 18.5623C8.38147 18.5623 5.43768 15.6185 5.43768 12C5.43768 8.38147 8.38147 5.43768 12 5.43768C15.6185 5.43768 18.5623 8.38147 18.5623 12C18.5623 15.6185 15.6185 18.5623 12 18.5623ZM18.7192 6.98529C17.6499 6.98529 16.7802 6.11554 16.7802 5.0462C16.7802 3.97687 17.6499 3.10693 18.7192 3.10693C19.7886 3.10693 20.6585 3.97687 20.6585 5.0462C20.6585 6.11554 19.7886 6.98529 18.7192 6.98529Z" fill="white"/>
<path d="M12.0001 6.84448C9.15753 6.84448 6.84473 9.1571 6.84473 11.9998C6.84473 14.8423 9.15753 17.1552 12.0001 17.1552C14.8428 17.1552 17.1554 14.8423 17.1554 11.9998C17.1554 9.1571 14.8428 6.84448 12.0001 6.84448Z" fill="white"/>
<path d="M18.7186 4.51392C18.4253 4.51392 18.1865 4.75269 18.1865 5.04602C18.1865 5.33936 18.4253 5.57812 18.7186 5.57812C19.0121 5.57812 19.2509 5.33954 19.2509 5.04602C19.2509 4.7525 19.0121 4.51392 18.7186 4.51392Z" fill="white"/>
</symbol><symbol id="icon_footer_vk" viewBox="0 0 24 13">
<path fill-rule="evenodd" clip-rule="evenodd" d="M20.6554 8.26599C21.4515 9.00996 22.2918 9.70992 23.0058 10.5289C23.3212 10.8929 23.6199 11.2684 23.8483 11.6908C24.172 12.2912 23.8788 12.9519 23.3163 12.9878L19.82 12.9863C18.9182 13.0579 18.1988 12.7104 17.5939 12.1203C17.1098 11.6483 16.6615 11.146 16.1961 10.6581C16.0052 10.4587 15.8055 10.2711 15.5669 10.1228C15.0896 9.82623 14.6753 9.91703 14.4025 10.3935C14.1247 10.8781 14.0617 11.4148 14.0344 11.9549C13.997 12.7429 13.7481 12.9501 12.9211 12.9862C11.1537 13.066 9.47629 12.81 7.91806 11.9566C6.54426 11.2043 5.47894 10.1422 4.5517 8.93977C2.74634 6.59842 1.36379 4.02567 0.121208 1.38084C-0.158487 0.784951 0.0460603 0.465084 0.732957 0.453762C1.87358 0.432554 3.01405 0.434063 4.15601 0.452253C4.61959 0.458744 4.92649 0.713249 5.10549 1.13244C5.7226 2.58483 6.47771 3.96665 7.42553 5.24748C7.67794 5.58848 7.93532 5.92948 8.30184 6.16949C8.7073 6.43524 9.01602 6.34716 9.20677 5.91484C9.32781 5.64071 9.3808 5.34544 9.40808 5.05184C9.49845 4.04175 9.51035 3.03338 9.35186 2.02684C9.25455 1.39865 8.88488 0.991982 8.23 0.873108C7.89582 0.8125 7.94558 0.693475 8.10738 0.510898C8.38842 0.196012 8.65274 0 9.17964 0H13.1311C13.7532 0.117516 13.8913 0.385004 13.9765 0.984133L13.9799 5.18536C13.9731 5.4173 14.1009 6.10556 14.5374 6.25908C14.8867 6.36837 15.117 6.10088 15.3265 5.88887C16.2726 4.92776 16.9479 3.79192 17.5511 2.61578C17.8188 2.09861 18.049 1.56153 18.2721 1.02489C18.4373 0.626678 18.6967 0.430742 19.1653 0.439422L22.9684 0.442667C23.0811 0.442667 23.1952 0.444252 23.3044 0.46214C23.9453 0.566675 24.1209 0.830539 23.923 1.42952C23.6111 2.36927 23.0043 3.15241 22.411 3.93917C21.7768 4.77915 21.0985 5.59036 20.4696 6.43532C19.8917 7.20691 19.9376 7.59584 20.6554 8.26599Z" fill="white"/>
</symbol><symbol id="icon_subscription_rub" viewBox="0 0 30 42">
<path fill-rule="evenodd" clip-rule="evenodd" d="M0 17H6V23H0V17Z" fill="#102654"/>
<path fill-rule="evenodd" clip-rule="evenodd" d="M3.65854 28.3214V18H9.65854V28.3214H21V34.3214H9.65854V42H3.65854V34.3214H0V28.3214H3.65854Z" fill="#102654"/>
<path fill-rule="evenodd" clip-rule="evenodd" d="M18.5 6H10V17H18.5C21.5376 17 24 14.5376 24 11.5C24 8.46243 21.5376 6 18.5 6ZM4 0V23H18.5C24.8513 23 30 17.8513 30 11.5C30 5.14873 24.8513 0 18.5 0H4Z" fill="#102654"/>
</symbol><symbol id="icon_trainers_video" viewBox="0 0 100 100">
  <circle cx="50" cy="50" r="49" stroke="url(#paint0_linear)" stroke-opacity="0.2" stroke-width="2"/>
  <circle cx="50" cy="50" r="36" fill="url(#paint1_linear)"/>
  <path d="M59 49.5L46.25 56.8612L46.25 42.1388L59 49.5Z" fill="white"/>

  
</symbol></svg>

<svg xmlns="http://www.w3.org/2000/svg" xmlns:xlink="http://www.w3.org/1999/xlink"><defs><linearGradient id="paint0_linear" x1="-2" y1="3" x2="21.475" y2="70.448" gradientUnits="userSpaceOnUse"><stop stop-color="#D10A42"/><stop offset="1" stop-color="#0041CA"/></linearGradient><linearGradient id="paint0_linear" x1="-3" y1="2" x2="28.518" y2="60.694" gradientUnits="userSpaceOnUse"><stop stop-color="#D10A42"/><stop offset="1" stop-color="#0041CA"/></linearGradient><linearGradient id="paint0_linear" x1="-2" y1="3" x2="29.023" y2="62.422" gradientUnits="userSpaceOnUse"><stop stop-color="#D10A42"/><stop offset="1" stop-color="#0041CA"/></linearGradient><linearGradient id="paint0_linear" x1="-3" y1="3" x2="19.444" y2="41.104" gradientUnits="userSpaceOnUse"><stop stop-color="#D10A42"/><stop offset="1" stop-color="#0041CA"/></linearGradient><linearGradient id="paint0_linear" x1="19.774" y1="0" x2="105.785" y2="10.644" gradientUnits="userSpaceOnUse"><stop stop-color="#ED0233"/><stop offset="1" stop-color="#003EB7"/></linearGradient><linearGradient id="paint1_linear" x1="14" y1="49.52" x2="54.186" y2="9.184" gradientUnits="userSpaceOnUse"><stop stop-color="#003D85"/><stop offset=".885" stop-color="#B80027"/></linearGradient></defs><symbol id="icon_advantages_350"><path d="M10.03 22.29h4.75c1.802 0 3.12-.624 3.951-1.872.856-1.272 1.283-2.959 1.283-5.062 0-2.01-.439-3.57-1.317-4.68-.855-1.133-2.011-1.699-3.467-1.699-1.364 0-2.485.532-3.363 1.595-.855 1.063-1.283 2.403-1.283 4.021H.774c0-2.634.6-4.992 1.802-7.072C3.801 5.418 5.5 3.777 7.672 2.598 9.868 1.42 12.295.83 14.952.83c4.646 0 8.286 1.283 10.921 3.848 2.635 2.566 3.952 6.079 3.952 10.54 0 2.287-.6 4.414-1.802 6.378-1.18 1.942-2.74 3.432-4.68 4.472 2.38 1.017 4.148 2.543 5.303 4.576 1.18 2.034 1.769 4.438 1.769 7.212 0 4.483-1.433 8.077-4.3 10.781-2.842 2.704-6.586 4.056-11.232 4.056-4.322 0-7.835-1.329-10.539-3.986-2.68-2.681-4.021-6.194-4.021-10.54h9.81c0 1.803.475 3.317 1.422 4.542.948 1.225 2.15 1.837 3.606 1.837 1.687 0 3.016-.624 3.987-1.872.993-1.248 1.49-2.912 1.49-4.992 0-4.969-1.93-7.465-5.79-7.488H10.03V22.29zm28.185 4.888L40.71 1.523h24.44v8.39H48.755l-.901 10.817c1.895-1.272 3.848-1.907 5.858-1.907 4.16 0 7.362 1.479 9.604 4.437 2.264 2.959 3.397 7.142 3.397 12.55 0 5.062-1.34 9.14-4.022 12.238-2.68 3.097-6.263 4.645-10.747 4.645-2.657 0-5.119-.624-7.384-1.872a14.174 14.174 0 01-5.373-5.27c-1.295-2.241-1.953-4.783-1.977-7.626h9.707c.162 2.103.682 3.732 1.56 4.888.879 1.156 2.011 1.733 3.398 1.733 1.618 0 2.866-.774 3.744-2.322.878-1.572 1.317-3.906 1.317-7.003 0-2.912-.531-5.108-1.594-6.587-1.04-1.48-2.508-2.219-4.403-2.219-1.849 0-3.282.636-4.299 1.907l-.624.867-7.8-2.011zm64.24 3.952c0 6.98-1.272 12.319-3.814 16.017-2.52 3.697-6.125 5.546-10.816 5.546-4.646 0-8.24-1.79-10.782-5.373-2.52-3.606-3.825-8.76-3.918-15.462v-9.534c0-6.957 1.26-12.272 3.78-15.947C79.423 2.679 83.04.83 87.754.83s8.332 1.826 10.851 5.478c2.52 3.651 3.802 8.863 3.849 15.635v9.187zm-9.846-10.227c0-3.975-.393-6.957-1.179-8.944-.786-1.988-2.01-2.982-3.675-2.982-3.12 0-4.738 3.64-4.853 10.92v12.585c0 4.068.393 7.095 1.179 9.083.808 1.988 2.056 2.981 3.744 2.981 1.594 0 2.773-.924 3.536-2.773.786-1.872 1.202-4.727 1.248-8.563V20.903z" fill="url(#paint0_linear)"/></symbol><symbol id="icon_advantages_5"><path d="M1.299 26.178L3.795.523h24.44v8.39H11.839l-.901 10.817c1.895-1.272 3.848-1.907 5.858-1.907 4.16 0 7.362 1.479 9.603 4.437 2.265 2.959 3.398 7.142 3.398 12.55 0 5.062-1.34 9.14-4.022 12.238-2.68 3.097-6.263 4.645-10.747 4.645-2.657 0-5.119-.624-7.384-1.872a14.173 14.173 0 01-5.373-5.27C.975 42.31.317 39.769.293 36.926h9.708c.161 2.103.681 3.732 1.56 4.888.878 1.156 2.01 1.733 3.397 1.733 1.618 0 2.866-.774 3.744-2.322.878-1.572 1.317-3.906 1.317-7.003 0-2.912-.531-5.108-1.594-6.587-1.04-1.48-2.508-2.219-4.403-2.219-1.849 0-3.282.636-4.299 1.907l-.624.867-7.8-2.011zM54.41 22.71h9.811v9.118h-9.81v14.11h-9.292v-14.11h-9.984V22.71h9.984V9.19h9.291v13.52z" fill="url(#paint0_linear)"/></symbol><symbol id="icon_advantages_70"><path d="M30.9 7.174L14.953 52H4.587L20.604 9.67H.357V1.523H30.9v5.651zM66.539 31.13c0 6.98-1.272 12.319-3.814 16.017-2.52 3.697-6.125 5.546-10.816 5.546-4.646 0-8.24-1.79-10.782-5.373-2.52-3.606-3.825-8.76-3.918-15.462v-9.534c0-6.957 1.26-12.272 3.78-15.947C43.507 2.679 47.124.83 51.838.83c4.715 0 8.332 1.826 10.851 5.478 2.52 3.651 3.802 8.863 3.849 15.635v9.187zm-9.846-10.227c0-3.975-.393-6.957-1.179-8.944-.786-1.988-2.01-2.982-3.675-2.982-3.12 0-4.738 3.64-4.853 10.92v12.585c0 4.068.393 7.095 1.179 9.083.809 1.988 2.056 2.981 3.744 2.981 1.594 0 2.773-.924 3.536-2.773.786-1.872 1.202-4.727 1.248-8.563V20.903z" fill="url(#paint0_linear)"/></symbol><symbol id="icon_advantages_900"><path d="M19.326 32.482c-2.08 2.126-4.356 3.19-6.83 3.19-3.836 0-6.864-1.538-9.082-4.611C1.218 27.963.12 23.838.12 18.684c0-3.328.624-6.367 1.872-9.118 1.248-2.773 2.982-4.922 5.2-6.448C9.434 1.593 11.93.83 14.681.83c2.842 0 5.373.844 7.592 2.53 2.219 1.688 3.94 4.115 5.166 7.281 1.224 3.143 1.837 6.726 1.837 10.747v3.571c0 8.598-1.895 15.323-5.686 20.177-3.767 4.83-9.117 7.292-16.05 7.384H6.533v-8.459h.658c3.837-.023 6.714-1.017 8.633-2.981 1.941-1.965 3.108-4.83 3.501-8.598zm-4.333-4.507c1.895 0 3.386-1.294 4.472-3.883v-4.507c0-3.305-.45-5.893-1.352-7.765-.902-1.895-2.069-2.843-3.502-2.843-1.41 0-2.554.936-3.432 2.808-.855 1.85-1.283 4.114-1.283 6.795 0 2.912.451 5.212 1.352 6.899.902 1.664 2.15 2.496 3.745 2.496zm50.546 3.155c0 6.98-1.272 12.319-3.814 16.017-2.52 3.697-6.125 5.546-10.816 5.546-4.646 0-8.24-1.79-10.782-5.373-2.52-3.606-3.825-8.76-3.918-15.462v-9.534c0-6.957 1.26-12.272 3.78-15.947C42.507 2.679 46.124.83 50.838.83c4.715 0 8.332 1.826 10.851 5.478 2.52 3.651 3.802 8.863 3.849 15.635v9.187zm-9.846-10.227c0-3.975-.393-6.957-1.179-8.944-.786-1.988-2.01-2.982-3.675-2.982-3.12 0-4.738 3.64-4.853 10.92v12.585c0 4.068.393 7.095 1.179 9.083.809 1.988 2.056 2.981 3.744 2.981 1.594 0 2.773-.924 3.536-2.773.786-1.872 1.202-4.727 1.248-8.563V20.903zm45.762 10.227c0 6.98-1.272 12.319-3.814 16.017-2.52 3.697-6.125 5.546-10.816 5.546-4.646 0-8.24-1.79-10.782-5.373-2.52-3.606-3.825-8.76-3.918-15.462v-9.534c0-6.957 1.26-12.272 3.78-15.947C78.423 2.679 82.04.83 86.754.83s8.332 1.826 10.851 5.478c2.52 3.651 3.802 8.863 3.849 15.635v9.187zm-9.846-10.227c0-3.975-.393-6.957-1.179-8.944-.786-1.988-2.01-2.982-3.675-2.982-3.12 0-4.738 3.64-4.853 10.92v12.585c0 4.068.393 7.095 1.179 9.083.808 1.988 2.056 2.981 3.744 2.981 1.594 0 2.773-.924 3.536-2.773.786-1.872 1.202-4.727 1.248-8.563V20.903z" fill="url(#paint0_linear)"/></symbol><symbol id="icon_footer_fb"><path d="M11.548.005L8.67 0C5.436 0 3.347 2.318 3.347 5.906V8.63H.453c-.25 0-.453.219-.453.49v3.945c0 .27.203.49.453.49h2.894v9.956c0 .27.202.489.452.489h3.776c.25 0 .452-.22.452-.49v-9.956h3.384c.25 0 .453-.219.453-.489l.001-3.946a.51.51 0 00-.132-.346.436.436 0 00-.32-.143H8.026V6.32c0-1.11.245-1.673 1.582-1.673h1.939c.25 0 .452-.22.452-.49V.494c0-.27-.202-.489-.452-.489z" fill="#fff"/></symbol><symbol id="icon_footer_inst"><path d="M17.503 0H6.497A6.504 6.504 0 000 6.497v11.007A6.504 6.504 0 006.497 24h11.007A6.504 6.504 0 0024 17.504V6.497A6.504 6.504 0 0017.503 0zM12 18.562A6.57 6.57 0 015.438 12 6.57 6.57 0 0112 5.438 6.57 6.57 0 0118.562 12 6.57 6.57 0 0112 18.562zm6.72-11.577c-1.07 0-1.94-.87-1.94-1.939 0-1.07.87-1.94 1.94-1.94 1.069 0 1.939.87 1.939 1.94 0 1.07-.87 1.94-1.94 1.94z" fill="#fff"/><path d="M12 6.844A5.161 5.161 0 006.845 12 5.161 5.161 0 0012 17.155 5.161 5.161 0 0017.155 12 5.161 5.161 0 0012 6.844zm6.719-2.33a.533.533 0 10.001 1.066.533.533 0 00-.001-1.066z" fill="#fff"/></symbol><symbol id="icon_footer_vk"><path fill-rule="evenodd" clip-rule="evenodd" d="M20.655 8.266c.796.744 1.637 1.444 2.35 2.263.316.364.615.74.843 1.162.324.6.03 1.26-.532 1.297l-3.496-.002c-.902.072-1.621-.276-2.226-.866-.484-.472-.933-.974-1.398-1.462a3.27 3.27 0 00-.63-.535c-.476-.297-.89-.206-1.164.27-.277.485-.34 1.022-.368 1.562-.037.788-.286.995-1.113 1.031-1.767.08-3.445-.176-5.003-1.03-1.374-.752-2.44-1.814-3.366-3.016C2.746 6.598 1.364 4.026.122 1.38-.159.786.045.466.732.455A97.704 97.704 0 014.156.452c.464.007.77.261.95.68.617 1.453 1.372 2.835 2.32 4.115.252.341.51.682.876.922.405.266.714.178.905-.254.12-.274.174-.57.201-.863.09-1.01.102-2.019-.056-3.025C9.255 1.399 8.885.992 8.23.873c-.334-.06-.284-.18-.123-.362C8.388.196 8.653 0 9.18 0h3.951c.622.118.76.385.845.984l.004 4.201c-.007.232.12.92.557 1.074.35.11.58-.158.79-.37.946-.961 1.62-2.097 2.224-3.273.268-.517.498-1.054.721-1.591.165-.398.425-.594.893-.586l3.803.004c.113 0 .227.001.336.02.641.104.817.368.619.967-.312.94-.919 1.722-1.512 2.51-.634.84-1.313 1.65-1.941 2.495-.578.772-.532 1.16.185 1.831z" fill="#fff"/></symbol><symbol id="icon_subscription_rub"><path fill-rule="evenodd" clip-rule="evenodd" d="M0 17h6v6H0v-6z" fill="#102654"/><path fill-rule="evenodd" clip-rule="evenodd" d="M3.659 28.321V18h6v10.321H21v6H9.659V42h-6v-7.679H0v-6h3.659z" fill="#102654"/><path fill-rule="evenodd" clip-rule="evenodd" d="M18.5 6H10v11h8.5a5.5 5.5 0 100-11zM4 0v23h14.5C24.851 23 30 17.851 30 11.5S24.851 0 18.5 0H4z" fill="#102654"/></symbol><symbol id="icon_trainers_video"><circle cx="50" cy="50" r="49" stroke="url(#paint0_linear)" stroke-opacity=".2" stroke-width="2"/><circle cx="50" cy="50" r="36" fill="url(#paint1_linear)"/><path d="M59 49.5l-12.75 7.361V42.14L59 49.5z" fill="#fff"/></symbol></svg>
